apps/www/public/images/launchweek/seven/day1/self-hosted-logs-001-7.svg

<svg xmlns="http://www.w3.org/2000/svg" width="1385" height="400" fill="none" viewBox="0 0 1385 400"><g clip-path="url(#a)" filter="url(#b)"><rect width="701" height="38" x="699" y="101" fill="url(#c)" fill-opacity=".5" rx="8"/><path stroke="#94794f" stroke-linecap="round" stroke-linejoin="round" stroke-width="1.627" d="m721.181 113.383-6.893 11.506a1.63 1.63 0 0 0 .584 2.217c.245.144.524.221.808.224h13.784a1.626 1.626 0 0 0 1.392-2.441l-6.892-11.506a1.63 1.63 0 0 0-1.392-.783 1.63 1.63 0 0 0-1.391.783M722.562 117.564v3.255M722.562 124.076h.009"/><g filter="url(#d)"><rect width="46.275" height="26.51" x="741.285" y="106.75" fill="#433218" fill-opacity=".4" rx="6.51"/><path fill="#94794f" d="M755.376 126.005h1.262v-2.961h1.601v-1.067h-1.601V119h-1.262v2.977h-3.851l3.851-6.65h-1.391l-3.932 6.828v.889h5.323zm8.6.194c2.297 0 3.705-2.022 3.705-5.565 0-3.576-1.408-5.501-3.705-5.501s-3.705 1.925-3.705 5.501c0 3.543 1.408 5.565 3.705 5.565m0-1.068c-1.44 0-2.459-1.423-2.459-4.497 0-3.09 1.019-4.433 2.459-4.433s2.459 1.343 2.459 4.433c0 3.074-1.019 4.497-2.459 4.497m0-3.51c.534 0 1.003-.405 1.003-1.1s-.469-1.101-1.003-1.101-1.003.405-1.003 1.101c0 .695.469 1.1 1.003 1.1m10.801 4.384h1.262v-2.961h1.601v-1.067h-1.601V119h-1.262v2.977h-3.851l3.851-6.65h-1.392l-3.931 6.828v.889h5.323z"/><rect width="45.461" height="25.696" x="741.692" y="107.157" stroke="#94794f" stroke-width=".814" rx="6.103"/></g><path fill="#fff" fill-opacity=".7" d="M798.146 126.005h7.176v-1.135h-2.787v-9.879h-1.018c-.668.35-1.485.634-2.62.801v.884h2.27v8.194h-3.021zm9.589 0h7.493v-1.185h-3.504c-.634 0-1.335.05-1.986.1 2.904-2.77 4.906-4.823 4.906-6.892 0-1.953-1.335-3.238-3.471-3.238-1.502 0-2.553.668-3.505 1.669l.785.785c.684-.751 1.552-1.336 2.553-1.336 1.569 0 2.32.918 2.32 2.17 0 1.852-1.986 3.788-5.591 7.109zm13.795-5.774c.751 0 1.352-.568 1.352-1.419 0-.834-.601-1.402-1.352-1.402s-1.352.568-1.352 1.402c0 .851.601 1.419 1.352 1.419m0 5.974c.751 0 1.352-.567 1.352-1.402 0-.851-.601-1.418-1.352-1.418s-1.352.567-1.352 1.418c0 .835.601 1.402 1.352 1.402m11.141-.2h1.302v-3.054h1.652v-1.101h-1.652v-3.071h-1.302v3.071h-3.972l3.972-6.859h-1.435l-4.055 7.042v.918h5.49zm7.637 0h1.435c.15-4.322.851-6.826 3.671-10.163v-.851h-7.71v1.184h6.142c-2.437 3.105-3.355 5.624-3.538 9.83m11.241-5.774c.751 0 1.352-.568 1.352-1.419 0-.834-.601-1.402-1.352-1.402s-1.352.568-1.352 1.402c0 .851.601 1.419 1.352 1.419m0 5.974c.751 0 1.352-.567 1.352-1.402 0-.851-.601-1.418-1.352-1.418s-1.352.567-1.352 1.418c0 .835.601 1.402 1.352 1.402m10.007 0c2.369 0 3.821-2.086 3.821-5.741 0-3.688-1.452-5.674-3.821-5.674s-3.822 1.986-3.822 5.674c0 3.655 1.452 5.741 3.822 5.741m-2.253-3.221c-.184-.667-.284-1.518-.284-2.52 0-3.187 1.051-4.572 2.537-4.572.684 0 1.285.3 1.718.951zm2.253 2.12c-.735 0-1.352-.351-1.803-1.085l4.005-6.191c.217.684.334 1.568.334 2.636 0 3.171-1.051 4.64-2.536 4.64m8.771.901h1.435c.15-4.322.851-6.826 3.672-10.163v-.851h-7.71v1.184h6.141c-2.436 3.105-3.354 5.624-3.538 9.83"/><path stroke="#bfbfbf" stroke-width="1.156" d="M886.461 111.085v17.84"/><path fill="#fff" fill-opacity=".7" d="M900.085 129.793c2.403 0 3.788-1.318 3.788-3.788v-8.511h-1.101l-.117.951h-.05c-.718-.717-1.535-1.151-2.487-1.151-1.969 0-3.704 1.668-3.704 4.339 0 2.686 1.418 4.288 3.504 4.288 1.001 0 2.003-.567 2.637-1.268l-.017 1.352c-.016 1.986-.901 2.687-2.453 2.687-.818 0-1.752-.234-2.587-1.302l-.667.834c1.051 1.252 2.203 1.569 3.254 1.569m.134-5.006c-1.486 0-2.404-1.235-2.404-3.171 0-1.853 1.169-3.171 2.537-3.171.718 0 1.419.284 2.153 1.018v4.022c-.734.851-1.502 1.302-2.286 1.302m10.707 1.435c1.302 0 2.32-.467 3.121-1.001l-.484-.918c-.751.5-1.519.801-2.47.801-1.769 0-3.037-1.185-3.104-3.021h6.341a6 6 0 0 0 .05-.801c0-2.403-1.368-3.988-3.688-3.988-2.102 0-4.122 1.702-4.122 4.472 0 2.787 1.953 4.456 4.356 4.456m-2.954-5.14c.217-1.702 1.419-2.704 2.737-2.704 1.502 0 2.403.968 2.403 2.704zm14.012 5.14c.884 0 1.819-.234 2.553-.518l-.3-1.001a5 5 0 0 1-1.953.384c-1.569 0-2.053-.818-2.053-2.353v-4.122h3.989v-1.118h-3.989v-3.338l-1.318.835v2.503h-2.336v1.118h2.286v4.105c0 2.086.768 3.505 3.121 3.505"/><path stroke="#bfbfbf" stroke-width="1.156" d="M935.364 111.085v17.84"/><path fill="#fff" fill-opacity=".7" d="M945.132 126.706h1.235l7.143-12.55h-1.235zm13.711-.484c1.002 0 1.97-.634 2.637-1.352h.05l.117 1.135h1.135v-12.132h-1.369v2.937l.05 1.602c-.751-.701-1.468-1.118-2.453-1.118-1.919 0-3.688 1.719-3.688 4.472 0 2.837 1.402 4.456 3.521 4.456m.284-1.152c-1.502 0-2.386-1.268-2.386-3.321 0-1.952 1.134-3.304 2.536-3.304.701 0 1.402.284 2.136 1.018v4.289c-.717.868-1.485 1.318-2.286 1.318m10.207 1.152c2.136 0 4.005-1.636 4.005-4.456 0-2.854-1.869-4.472-4.005-4.472s-4.005 1.618-4.005 4.472c0 2.82 1.869 4.456 4.005 4.456m0-1.135c-1.552 0-2.587-1.335-2.587-3.321s1.035-3.338 2.587-3.338 2.586 1.352 2.586 3.338-1.034 3.321-2.586 3.321m10.774 1.135c1.201 0 2.336-.501 3.221-1.335l-.601-.885c-.684.601-1.519 1.085-2.52 1.085-1.869 0-3.121-1.335-3.121-3.321s1.285-3.338 3.154-3.338c.852 0 1.552.368 2.22 1.002l.684-.885c-.667-.684-1.635-1.251-2.954-1.251-2.453 0-4.522 1.618-4.522 4.472 0 2.82 1.902 4.456 4.439 4.456m9.406 0c2.319 0 3.604-1.152 3.604-2.537 0-1.285-1.051-1.952-3.237-2.536-1.469-.384-2.47-.818-2.47-1.519 0-.684.484-1.268 2.002-1.268 1.002 0 1.87.367 2.587.901l.668-.901c-.801-.568-2.036-1.068-3.255-1.068-2.236 0-3.404 1.051-3.404 2.403 0 1.185 1.419 1.969 3.087 2.403 1.986.517 2.637 1.001 2.637 1.669 0 .767-.717 1.368-2.169 1.368s-2.454-.45-3.355-1.151l-.667.901c.984.717 2.386 1.335 3.972 1.335m5.65.484h1.235l7.141-12.55h-1.23zm13.226-.701h1.35v-7.393h3.41v-1.118h-3.41v-.434c0-1.402.6-2.27 2.06-2.27.7 0 1.21.084 1.88.418l.32-1.035a5.5 5.5 0 0 0-2.34-.501c-2.23 0-3.27 1.352-3.27 3.438v.384l-2.32.1v1.018h2.32zm10.07.217c1.16 0 2.31-.651 3.21-1.385h.05l.12 1.168h1.11v-5.24c0-2.086-1.06-3.471-3.28-3.471-1.42 0-2.62.667-3.27 1.218l.53.951c.58-.501 1.45-1.035 2.5-1.035 1.57 0 2.12 1.018 2.16 2.187-4.19.367-5.88 1.285-5.88 3.204 0 1.518 1.24 2.403 2.75 2.403m.37-1.102c-.93 0-1.78-.417-1.78-1.401 0-1.152 1.06-1.886 4.54-2.187v2.287c-.92.834-1.84 1.301-2.76 1.301m9.81.885h1.53l3.36-8.511h-1.32l-1.87 4.89c-.33.851-.6 1.702-.88 2.486h-.07c-.28-.784-.58-1.635-.92-2.486l-1.87-4.89h-1.38zm11.07-10.414c.65 0 1.17-.467 1.17-1.151 0-.701-.52-1.185-1.17-1.185s-1.17.484-1.17 1.185c0 .684.52 1.151 1.17 1.151m-3.67 10.414h7.68v-1.135h-3.16v-7.376h-4.52v1.118h3.16v6.258h-3.16zm14.11.217c1.2 0 2.34-.501 3.22-1.335l-.6-.885c-.68.601-1.52 1.085-2.52 1.085-1.87 0-3.12-1.335-3.12-3.321s1.29-3.338 3.16-3.338c.85 0 1.55.368 2.22 1.002l.68-.885c-.67-.684-1.64-1.251-2.95-1.251-2.46 0-4.53 1.618-4.53 4.472 0 2.82 1.91 4.456 4.44 4.456m9.24 0c2.14 0 4.01-1.636 4.01-4.456 0-2.854-1.87-4.472-4.01-4.472-2.13 0-4 1.618-4 4.472 0 2.82 1.87 4.456 4 4.456m0-1.135c-1.55 0-2.58-1.335-2.58-3.321s1.03-3.338 2.58-3.338 2.59 1.352 2.59 3.338-1.04 3.321-2.59 3.321m6.55.918h1.37v-5.941c.95-1.068 1.6-1.586 2.57-1.586 1.34 0 1.87.785 1.87 2.42v5.107h1.37v-5.29c0-2.237-.88-3.421-2.8-3.421-1.27 0-2.21.717-3.06 1.685h-.06l-.12-1.485h-1.14zm13.46.2c.76 0 1.36-.567 1.36-1.402 0-.851-.6-1.418-1.36-1.418-.75 0-1.35.567-1.35 1.418 0 .835.6 1.402 1.35 1.402m10.34-10.614c.66 0 1.17-.467 1.17-1.151 0-.701-.51-1.185-1.17-1.185-.65 0-1.16.484-1.16 1.185 0 .684.51 1.151 1.16 1.151m-3.67 10.414h7.68v-1.135h-3.15v-7.376h-4.53v1.118h3.16v6.258h-3.16zm14.12.217c1.2 0 2.33-.501 3.22-1.335l-.6-.885c-.69.601-1.52 1.085-2.52 1.085-1.87 0-3.13-1.335-3.13-3.321s1.29-3.338 3.16-3.338c.85 0 1.55.368 2.22 1.002l.68-.885c-.67-.684-1.63-1.251-2.95-1.251-2.45 0-4.52 1.618-4.52 4.472 0 2.82 1.9 4.456 4.44 4.456m9.23 0c2.14 0 4.01-1.636 4.01-4.456 0-2.854-1.87-4.472-4.01-4.472-2.13 0-4 1.618-4 4.472 0 2.82 1.87 4.456 4 4.456m0-1.135c-1.55 0-2.58-1.335-2.58-3.321s1.03-3.338 2.58-3.338c1.56 0 2.59 1.352 2.59 3.338s-1.03 3.321-2.59 3.321"/><rect width="699.808" height="36.808" x="699.596" y="101.596" stroke="url(#e)" stroke-width="1.192" rx="7.404"/></g><defs><linearGradient id="c" x1="1058.16" x2="1080.2" y1="64.211" y2="177.251" gradientUnits="userSpaceOnUse"><stop stop-color="#bb93c5" stop-opacity="0"/><stop offset=".198" stop-color="#bb93c5" stop-opacity=".19"/><stop offset="1" stop-color="#302642"/></linearGradient><linearGradient id="e" x1="1279.95" x2="1292.3" y1="139" y2="93.299" gradientUnits="userSpaceOnUse"><stop stop-color="#d478ff" stop-opacity=".05"/><stop offset="1" stop-color="#d782ff" stop-opacity=".74"/></linearGradient><filter id="b" width="720.072" height="57.072" x="689.464" y="91.464" color-interpolation-filters="sRGB" filterUnits="userSpaceOnUse"><feFlood flood-opacity="0" result="BackgroundImageFix"/><feGaussianBlur in="BackgroundImageFix" stdDeviation="4.768"/><feComposite in2="SourceAlpha" operator="in" result="effect1_backgroundBlur_19_7420"/><feBlend in="SourceGraphic" in2="effect1_backgroundBlur_19_7420" result="shape"/></filter><filter id="d" width="132.782" height="113.017" x="698.031" y="63.496" color-interpolation-filters="sRGB" filterUnits="userSpaceOnUse"><feFlood flood-opacity="0" result="BackgroundImageFix"/><feGaussianBlur in="BackgroundImageFix" stdDeviation="21.627"/><feComposite in2="SourceAlpha" operator="in" result="effect1_backgroundBlur_19_7420"/><feBlend in="SourceGraphic" in2="effect1_backgroundBlur_19_7420" result="shape"/></filter><clipPath id="a"><path fill="#fff" d="M0 0h1385v400H0z"/></clipPath></defs></svg>

<svg width="1385" height="400" viewBox="0 0 1385 400" fill="none" xmlns="http://www.w3.org/2000/svg">
<g clip-path="url(#clip0_19_7420)">
<g filter="url(#filter0_b_19_7420)">
<rect x="699" y="101" width="701" height="38" rx="8" fill="url(#paint0_linear_19_7420)" fill-opacity="0.5"/>
<path d="M721.181 113.383L714.288 124.889C714.146 125.135 714.071 125.414 714.07 125.698C714.07 125.983 714.143 126.262 714.284 126.509C714.425 126.756 714.628 126.961 714.872 127.106C715.117 127.25 715.396 127.327 715.68 127.33H729.464C729.749 127.327 730.027 127.25 730.272 127.106C730.517 126.961 730.72 126.756 730.86 126.509C731.001 126.262 731.075 125.983 731.074 125.698C731.073 125.414 730.998 125.135 730.856 124.889L723.964 113.383C723.819 113.144 723.614 112.946 723.371 112.809C723.127 112.672 722.852 112.6 722.572 112.6C722.292 112.6 722.017 112.672 721.774 112.809C721.53 112.946 721.326 113.144 721.181 113.383V113.383Z" stroke="#94794F" stroke-width="1.62745" stroke-linecap="round" stroke-linejoin="round"/>
<path d="M722.562 117.564V120.819" stroke="#94794F" stroke-width="1.62745" stroke-linecap="round" stroke-linejoin="round"/>
<path d="M722.562 124.076H722.571" stroke="#94794F" stroke-width="1.62745" stroke-linecap="round" stroke-linejoin="round"/>
<g filter="url(#filter1_b_19_7420)">
<rect x="741.285" y="106.75" width="46.2745" height="26.5098" rx="6.5098" fill="#433218" fill-opacity="0.4"/>
<path d="M755.376 126.005H756.638V123.044H758.239V121.977H756.638V119H755.376V121.977H751.525L755.376 115.327H753.985L750.053 122.155V123.044H755.376V126.005ZM763.976 126.199C766.273 126.199 767.681 124.177 767.681 120.634C767.681 117.058 766.273 115.133 763.976 115.133C761.679 115.133 760.271 117.058 760.271 120.634C760.271 124.177 761.679 126.199 763.976 126.199ZM763.976 125.131C762.536 125.131 761.517 123.708 761.517 120.634C761.517 117.544 762.536 116.201 763.976 116.201C765.416 116.201 766.435 117.544 766.435 120.634C766.435 123.708 765.416 125.131 763.976 125.131ZM763.976 121.621C764.51 121.621 764.979 121.216 764.979 120.521C764.979 119.825 764.51 119.42 763.976 119.42C763.442 119.42 762.973 119.825 762.973 120.521C762.973 121.216 763.442 121.621 763.976 121.621ZM774.777 126.005H776.039V123.044H777.64V121.977H776.039V119H774.777V121.977H770.926L774.777 115.327H773.385L769.454 122.155V123.044H774.777V126.005Z" fill="#94794F"/>
<rect x="741.692" y="107.157" width="45.4608" height="25.6961" rx="6.10293" stroke="#94794F" stroke-width="0.813724"/>
</g>
<path d="M798.146 126.005H805.322V124.87H802.535V114.991H801.517C800.849 115.341 800.032 115.625 798.897 115.792V116.676H801.167V124.87H798.146V126.005ZM807.735 126.005H815.228V124.82H811.724C811.09 124.82 810.389 124.87 809.738 124.92C812.642 122.15 814.644 120.097 814.644 118.028C814.644 116.075 813.309 114.79 811.173 114.79C809.671 114.79 808.62 115.458 807.668 116.459L808.453 117.244C809.137 116.493 810.005 115.908 811.006 115.908C812.575 115.908 813.326 116.826 813.326 118.078C813.326 119.93 811.34 121.866 807.735 125.187V126.005ZM821.53 120.231C822.281 120.231 822.882 119.663 822.882 118.812C822.882 117.978 822.281 117.41 821.53 117.41C820.779 117.41 820.178 117.978 820.178 118.812C820.178 119.663 820.779 120.231 821.53 120.231ZM821.53 126.205C822.281 126.205 822.882 125.638 822.882 124.803C822.882 123.952 822.281 123.385 821.53 123.385C820.779 123.385 820.178 123.952 820.178 124.803C820.178 125.638 820.779 126.205 821.53 126.205ZM832.671 126.005H833.973V122.951H835.625V121.85H833.973V118.779H832.671V121.85H828.699L832.671 114.991H831.236L827.181 122.033V122.951H832.671V126.005ZM840.308 126.005H841.743C841.893 121.683 842.594 119.179 845.414 115.842V114.991H837.704V116.175H843.846C841.409 119.28 840.491 121.799 840.308 126.005ZM851.549 120.231C852.3 120.231 852.901 119.663 852.901 118.812C852.901 117.978 852.3 117.41 851.549 117.41C850.798 117.41 850.197 117.978 850.197 118.812C850.197 119.663 850.798 120.231 851.549 120.231ZM851.549 126.205C852.3 126.205 852.901 125.638 852.901 124.803C852.901 123.952 852.3 123.385 851.549 123.385C850.798 123.385 850.197 123.952 850.197 124.803C850.197 125.638 850.798 126.205 851.549 126.205ZM861.556 126.205C863.925 126.205 865.377 124.119 865.377 120.464C865.377 116.776 863.925 114.79 861.556 114.79C859.186 114.79 857.734 116.776 857.734 120.464C857.734 124.119 859.186 126.205 861.556 126.205ZM859.303 122.984C859.119 122.317 859.019 121.466 859.019 120.464C859.019 117.277 860.07 115.892 861.556 115.892C862.24 115.892 862.841 116.192 863.274 116.843L859.303 122.984ZM861.556 125.104C860.821 125.104 860.204 124.753 859.753 124.019L863.758 117.828C863.975 118.512 864.092 119.396 864.092 120.464C864.092 123.635 863.041 125.104 861.556 125.104ZM870.327 126.005H871.762C871.912 121.683 872.613 119.179 875.434 115.842V114.991H867.724V116.175H873.865C871.429 119.28 870.511 121.799 870.327 126.005Z" fill="white" fill-opacity="0.7"/>
<path d="M886.461 111.085L886.461 128.925" stroke="#BFBFBF" stroke-width="1.15557"/>
<path d="M900.085 129.793C902.488 129.793 903.873 128.475 903.873 126.005V117.494H902.772L902.655 118.445H902.605C901.887 117.728 901.07 117.294 900.118 117.294C898.149 117.294 896.414 118.962 896.414 121.633C896.414 124.319 897.832 125.921 899.918 125.921C900.919 125.921 901.921 125.354 902.555 124.653L902.538 126.005C902.522 127.991 901.637 128.692 900.085 128.692C899.267 128.692 898.333 128.458 897.498 127.39L896.831 128.224C897.882 129.476 899.034 129.793 900.085 129.793ZM900.219 124.787C898.733 124.787 897.815 123.552 897.815 121.616C897.815 119.763 898.984 118.445 900.352 118.445C901.07 118.445 901.771 118.729 902.505 119.463V123.485C901.771 124.336 901.003 124.787 900.219 124.787ZM910.926 126.222C912.228 126.222 913.246 125.755 914.047 125.221L913.563 124.303C912.812 124.803 912.044 125.104 911.093 125.104C909.324 125.104 908.056 123.919 907.989 122.083H914.33C914.364 121.866 914.38 121.566 914.38 121.282C914.38 118.879 913.012 117.294 910.692 117.294C908.59 117.294 906.57 118.996 906.57 121.766C906.57 124.553 908.523 126.222 910.926 126.222ZM907.972 121.082C908.189 119.38 909.391 118.378 910.709 118.378C912.211 118.378 913.112 119.346 913.112 121.082H907.972ZM921.984 126.222C922.868 126.222 923.803 125.988 924.537 125.704L924.237 124.703C923.669 124.937 923.052 125.087 922.284 125.087C920.715 125.087 920.231 124.269 920.231 122.734V118.612H924.22V117.494H920.231V114.156L918.913 114.991V117.494H916.577V118.612H918.863V122.717C918.863 124.803 919.631 126.222 921.984 126.222Z" fill="white" fill-opacity="0.7"/>
<path d="M935.364 111.085L935.364 128.925" stroke="#BFBFBF" stroke-width="1.15557"/>
<path d="M945.132 126.706H946.367L953.51 114.156H952.275L945.132 126.706ZM958.843 126.222C959.845 126.222 960.813 125.588 961.48 124.87H961.53L961.647 126.005H962.782V113.873H961.413V116.81L961.463 118.412C960.712 117.711 959.995 117.294 959.01 117.294C957.091 117.294 955.322 119.013 955.322 121.766C955.322 124.603 956.724 126.222 958.843 126.222ZM959.127 125.07C957.625 125.07 956.741 123.802 956.741 121.749C956.741 119.797 957.875 118.445 959.277 118.445C959.978 118.445 960.679 118.729 961.413 119.463V123.752C960.696 124.62 959.928 125.07 959.127 125.07ZM969.334 126.222C971.47 126.222 973.339 124.586 973.339 121.766C973.339 118.912 971.47 117.294 969.334 117.294C967.198 117.294 965.329 118.912 965.329 121.766C965.329 124.586 967.198 126.222 969.334 126.222ZM969.334 125.087C967.782 125.087 966.747 123.752 966.747 121.766C966.747 119.78 967.782 118.428 969.334 118.428C970.886 118.428 971.92 119.78 971.92 121.766C971.92 123.752 970.886 125.087 969.334 125.087ZM980.108 126.222C981.309 126.222 982.444 125.721 983.329 124.887L982.728 124.002C982.044 124.603 981.209 125.087 980.208 125.087C978.339 125.087 977.087 123.752 977.087 121.766C977.087 119.78 978.372 118.428 980.241 118.428C981.093 118.428 981.793 118.796 982.461 119.43L983.145 118.545C982.478 117.861 981.51 117.294 980.191 117.294C977.738 117.294 975.669 118.912 975.669 121.766C975.669 124.586 977.571 126.222 980.108 126.222ZM989.514 126.222C991.833 126.222 993.118 125.07 993.118 123.685C993.118 122.4 992.067 121.733 989.881 121.149C988.412 120.765 987.411 120.331 987.411 119.63C987.411 118.946 987.895 118.362 989.413 118.362C990.415 118.362 991.283 118.729 992 119.263L992.668 118.362C991.867 117.794 990.632 117.294 989.413 117.294C987.177 117.294 986.009 118.345 986.009 119.697C986.009 120.882 987.428 121.666 989.096 122.1C991.082 122.617 991.733 123.101 991.733 123.769C991.733 124.536 991.016 125.137 989.564 125.137C988.112 125.137 987.11 124.687 986.209 123.986L985.542 124.887C986.526 125.604 987.928 126.222 989.514 126.222ZM995.164 126.706H996.399L1003.54 114.156H1002.31L995.164 126.706ZM1008.39 126.005H1009.74V118.612H1013.15V117.494H1009.74V117.06C1009.74 115.658 1010.34 114.79 1011.8 114.79C1012.5 114.79 1013.01 114.874 1013.68 115.208L1014 114.173C1013.23 113.822 1012.46 113.672 1011.66 113.672C1009.43 113.672 1008.39 115.024 1008.39 117.11V117.494L1006.07 117.594V118.612H1008.39V126.005ZM1018.46 126.222C1019.62 126.222 1020.77 125.571 1021.67 124.837H1021.72L1021.84 126.005H1022.95V120.765C1022.95 118.679 1021.89 117.294 1019.67 117.294C1018.25 117.294 1017.05 117.961 1016.4 118.512L1016.93 119.463C1017.51 118.962 1018.38 118.428 1019.43 118.428C1021 118.428 1021.55 119.446 1021.59 120.615C1017.4 120.982 1015.71 121.9 1015.71 123.819C1015.71 125.337 1016.95 126.222 1018.46 126.222ZM1018.83 125.12C1017.9 125.12 1017.05 124.703 1017.05 123.719C1017.05 122.567 1018.11 121.833 1021.59 121.532V123.819C1020.67 124.653 1019.75 125.12 1018.83 125.12ZM1028.64 126.005H1030.17L1033.53 117.494H1032.21L1030.34 122.384C1030.01 123.235 1029.74 124.086 1029.46 124.87H1029.39C1029.11 124.086 1028.81 123.235 1028.47 122.384L1026.6 117.494H1025.22L1028.64 126.005ZM1039.71 115.591C1040.36 115.591 1040.88 115.124 1040.88 114.44C1040.88 113.739 1040.36 113.255 1039.71 113.255C1039.06 113.255 1038.54 113.739 1038.54 114.44C1038.54 115.124 1039.06 115.591 1039.71 115.591ZM1036.04 126.005H1043.72V124.87H1040.56V117.494H1036.04V118.612H1039.2V124.87H1036.04V126.005ZM1050.15 126.222C1051.35 126.222 1052.49 125.721 1053.37 124.887L1052.77 124.002C1052.09 124.603 1051.25 125.087 1050.25 125.087C1048.38 125.087 1047.13 123.752 1047.13 121.766C1047.13 119.78 1048.42 118.428 1050.29 118.428C1051.14 118.428 1051.84 118.796 1052.51 119.43L1053.19 118.545C1052.52 117.861 1051.55 117.294 1050.24 117.294C1047.78 117.294 1045.71 118.912 1045.71 121.766C1045.71 124.586 1047.62 126.222 1050.15 126.222ZM1059.39 126.222C1061.53 126.222 1063.4 124.586 1063.4 121.766C1063.4 118.912 1061.53 117.294 1059.39 117.294C1057.26 117.294 1055.39 118.912 1055.39 121.766C1055.39 124.586 1057.26 126.222 1059.39 126.222ZM1059.39 125.087C1057.84 125.087 1056.81 123.752 1056.81 121.766C1056.81 119.78 1057.84 118.428 1059.39 118.428C1060.94 118.428 1061.98 119.78 1061.98 121.766C1061.98 123.752 1060.94 125.087 1059.39 125.087ZM1065.94 126.005H1067.31V120.064C1068.26 118.996 1068.91 118.478 1069.88 118.478C1071.22 118.478 1071.75 119.263 1071.75 120.898V126.005H1073.12V120.715C1073.12 118.478 1072.24 117.294 1070.32 117.294C1069.05 117.294 1068.11 118.011 1067.26 118.979H1067.2L1067.08 117.494H1065.94V126.005ZM1079.4 126.205C1080.16 126.205 1080.76 125.638 1080.76 124.803C1080.76 123.952 1080.16 123.385 1079.4 123.385C1078.65 123.385 1078.05 123.952 1078.05 124.803C1078.05 125.638 1078.65 126.205 1079.4 126.205ZM1089.74 115.591C1090.4 115.591 1090.91 115.124 1090.91 114.44C1090.91 113.739 1090.4 113.255 1089.74 113.255C1089.09 113.255 1088.58 113.739 1088.58 114.44C1088.58 115.124 1089.09 115.591 1089.74 115.591ZM1086.07 126.005H1093.75V124.87H1090.6V117.494H1086.07V118.612H1089.23V124.87H1086.07V126.005ZM1100.19 126.222C1101.39 126.222 1102.52 125.721 1103.41 124.887L1102.81 124.002C1102.12 124.603 1101.29 125.087 1100.29 125.087C1098.42 125.087 1097.16 123.752 1097.16 121.766C1097.16 119.78 1098.45 118.428 1100.32 118.428C1101.17 118.428 1101.87 118.796 1102.54 119.43L1103.22 118.545C1102.55 117.861 1101.59 117.294 1100.27 117.294C1097.82 117.294 1095.75 118.912 1095.75 121.766C1095.75 124.586 1097.65 126.222 1100.19 126.222ZM1109.42 126.222C1111.56 126.222 1113.43 124.586 1113.43 121.766C1113.43 118.912 1111.56 117.294 1109.42 117.294C1107.29 117.294 1105.42 118.912 1105.42 121.766C1105.42 124.586 1107.29 126.222 1109.42 126.222ZM1109.42 125.087C1107.87 125.087 1106.84 123.752 1106.84 121.766C1106.84 119.78 1107.87 118.428 1109.42 118.428C1110.98 118.428 1112.01 119.78 1112.01 121.766C1112.01 123.752 1110.98 125.087 1109.42 125.087Z" fill="white" fill-opacity="0.7"/>
<rect x="699.596" y="101.596" width="699.808" height="36.808" rx="7.40399" stroke="url(#paint1_linear_19_7420)" stroke-width="1.19202"/>
</g>
</g>
<defs>
<filter id="filter0_b_19_7420" x="689.464" y="91.4639" width="720.072" height="57.0723" filterUnits="userSpaceOnUse" color-interpolation-filters="sRGB">
<feFlood flood-opacity="0" result="BackgroundImageFix"/>
<feGaussianBlur in="BackgroundImageFix" stdDeviation="4.76807"/>
<feComposite in2="SourceAlpha" operator="in" result="effect1_backgroundBlur_19_7420"/>
<feBlend mode="normal" in="SourceGraphic" in2="effect1_backgroundBlur_19_7420" result="shape"/>
</filter>
<filter id="filter1_b_19_7420" x="698.031" y="63.4962" width="132.782" height="113.017" filterUnits="userSpaceOnUse" color-interpolation-filters="sRGB">
<feFlood flood-opacity="0" result="BackgroundImageFix"/>
<feGaussianBlur in="BackgroundImageFix" stdDeviation="21.6269"/>
<feComposite in2="SourceAlpha" operator="in" result="effect1_backgroundBlur_19_7420"/>
<feBlend mode="normal" in="SourceGraphic" in2="effect1_backgroundBlur_19_7420" result="shape"/>
</filter>
<linearGradient id="paint0_linear_19_7420" x1="1058.16" y1="64.2112" x2="1080.2" y2="177.251" gradientUnits="userSpaceOnUse">
<stop stop-color="#BB93C5" stop-opacity="0"/>
<stop offset="0.197872" stop-color="#BB93C5" stop-opacity="0.19"/>
<stop offset="1" stop-color="#302642"/>
</linearGradient>
<linearGradient id="paint1_linear_19_7420" x1="1279.95" y1="139" x2="1292.3" y2="93.2988" gradientUnits="userSpaceOnUse">
<stop stop-color="#D478FF" stop-opacity="0.05"/>
<stop offset="1" stop-color="#D782FF" stop-opacity="0.74"/>
</linearGradient>
<clipPath id="clip0_19_7420">
<rect width="1385" height="400" fill="white"/>
</clipPath>
</defs>
</svg>
